X: 1
P: Douglas Hornpipe
C: Athole Colln, arr. T. Traub 6-30-2011
C: a.k.a. Huntsmans' Hornpipe (in Ryan's)
R: reel
M: 4/4
L: 1/8
K: C
|: GE|"C"C2 c2 c2 Bc|"G"dBGB "C"c2 cd|"C"ecec "F"fdfd|"Dm"gece "G"dBGE|"C"C2 c2 c2 Bc|
"G"dBGB "Am"c2 Bc|"G"dBdB "D"cAGF|"G"G2 B2 G2 :||:ef|"C"gfed cBAG|"F"A2 F2 F2 fg|
"Dm"agfe "(D)"dcBA|"G"B2 G2 G2 ef|"C"gege "F"fafa|"C"gege "F"fafa|"C"geaf "G"edcB|"C"c2 e2 c2 :|

